icons/editor/eraser.svg

<svg width="32" height="32" viewBox="0 0 32 32" fill="none" xmlns="http://www.w3.org/2000/svg">
<path fill-rule="evenodd" clip-rule="evenodd" d="M19.9141 4.00015C19.133 3.2191 17.8667 3.21911 17.0856 4.00015L2.99985 18.0859C2.2188 18.867 2.2188 20.1333 2.99985 20.9144L8.49985 26.4144C8.87492 26.7894 9.38363 27.0002 9.91406 27.0002H18.0856C18.6161 27.0002 19.1248 26.7894 19.4998 26.4144L29.4998 16.4144C30.2809 15.6333 30.2809 14.367 29.4998 13.5859L19.9141 4.00015ZM12.6641 11.2501L18.4998 5.41437L28.0856 15.0002L22.2499 20.8359L12.6641 11.2501ZM11.2499 12.6643L4.41406 19.5002L9.91406 25.0002H18.0856L20.8357 22.2501L11.2499 12.6643Z" fill="black"/>
</svg>

<svg width="32" height="32" viewBox="0 0 32 32" xmlns="http://www.w3.org/2000/svg">
    <path fill-rule="evenodd" d="M19.914 4a2 2 0 00-2.828 0L3 18.086a2 2 0 000 2.828l5.5 5.5A2 2 0 009.914 27h8.172a2 2 0 001.414-.586l10-10a2 2 0 000-2.828L19.914 4zm-7.25 7.25L18.5 5.414 28.086 15l-5.836 5.836-9.586-9.586zm-1.414 1.414L4.414 19.5l5.5 5.5h8.172l2.75-2.75-9.586-9.586z"/>
</svg>
